shader_type spatial;
render_mode blend_mix, cull_front, unshaded;

uniform vec4 outline_color : source_color = vec4(0.0, 0.0, 0.0, 1.0);
uniform float outline_width : hint_range(0.0, 2, 0.1) = 0.9;

void vertex() {
	VERTEX += NORMAL * outline_width;
}

void fragment() {
	ALBEDO = outline_color.rgb;
	ALPHA = outline_color.a;
}